!!!COM: Debussy, (Achille-)Claude
!!!OTL: La boîte à joujoux (The Toy Box), Ballet for Children (with piano accompaniment)
!!!OMV: Tableau 1: Le magasin de jouets (Le soldat anglais)
!!!example: 187
!!!work: Deb-42
!!!OMD-full: Modéré
!!!OMD: Mouvement de Marche modéré
**kern	**kern	**dynam
*grp:A	*grp:B	*grp:B
*part1	*part1	*part1
*staff2	*staff1	*
*ICklav	*ICklav	*
*Ipiano	*Ipiano	*
*I"Piano	*	*
*I'Pno.	*	*
*clefF4	*clefG2	*
*k[b-]	*k[b-]	*
*F:	*F:	*
*M2/4	*M2/4	*
*8ba	*	*
=122	=122	=122
*^	*	*
!	!	!LO:TX:t=[[quarter]=107]	!
!LO:TX:t=P:problem:missing 8vb line	!	!	!LO:DY:t=%s  lointain et raide
8AAA'L	8GGG	2ryy	4ryy
8AAA'J	8r	.	.
8AAA'L	8GGG	.	.
8AAA'J	8r	.	.
=123	=123	=123	=123
8AAA'L	8GGG	2ryy	.
8AAA'J	8r	.	.
8AAA'L	8GGG	.	.
8AAA'J	8r	.	.
=124	=124	=124	=124
8AAA'L	8GGG	2ryy	.
8AAA'J	8r	.	.
8AAA'L	8GGG	.	.
8AAA'J	8r	.	.
=125	=125	=125	=125
8AAA'L	8GGG	2ryy	.
8AAA'J	8r	.	.
8AAA'L	8GGG	.	.
8AAA'J	8r	.	.
*v	*v	*	*
=126	=126	=126
*	*8va	*
*^	*	*
!	!	!LO:TX:b:i:t=	!LO:DY:t=sempre  %s  très exactement rythmé
8AAA'L	8GGG	16ryy	4ryy
.	.	8ryy	.
8AAA'J	8r	.	.
!	!	!	!LO:DY:t
.	.	16ryy	.
8AAA'L	8GGG	8ryy	.
8AAA'J	8r	8ryy	.
=127	=127	=127	=127
!	!	!LO:TX:b:i:t=	!
8AAA'L	8GGG	16ryy	.
.	.	8ryy	.
8AAA'J	8r	.	.
.	.	16ryy	.
8AAA'L	8GGG	8ryy	.
8AAA'J	8r	8ryy	.
=128	=128	=128	=128
8AAA'L	8GGG	16ryy	.
.	.	8ryy	.
8AAA'J	8r	.	.
.	.	16ryy	.
8AAA'L	8GGG	8ryy	.
8AAA'J	8r	16ryy	.
.	.	16ryy	.
=129	=129	=129	=129
8AAA'L	8GGG	2ryy	.
8AAA'J	8r	.	.
8AAA'L	8GGG	.	.
8AAA'J	8r	.	.
=130	=130	=130	=130
8AAA'L	8GGG	16ryy	.
.	.	8ryy	.
8AAA'J	8r	.	.
.	.	16ryy	.
8AAA'L	8GGG	8ryy	.
*v	*v	*	*
*^	*	*
8AAA'J	8r	8ryy	.
*	*	*X8va	*
=131	=131	=131	=131
8AAA'L	8GGG	16ryy	.
.	.	8ryy	.
8AAA'J	8r	.	.
.	.	16ryy	.
8AAA'L	8GGG	4ryy	.
8AAA'J	8r	.	.
=132	=132	=132	=132
8AAA'L	8GGG	16ryy	.
.	.	8ryy	.
8AAA'J	8r	.	.
.	.	16ryy	.
8AAA'L	8GGG	8ryy	.
8AAA'J	8r	16ryy	.
.	.	16ryy	.
=133	=133	=133	=133
8AAA'L	8GGG	2ryy	.
8AAA'J	8r	.	.
8AAA'L	8GGG	.	.
*v	*v	*	*
*^	*	*
8AAA'J	8r	.	.
*v	*v	*	*
*X8ba	*clefF4	*
=134	=134	=134
!	!	!LO:DY:t=%s en augmentant peu à peu
8F'L	16ryy	4ryy
!	!LO:TX:b:i:t=	!
.	8ryy	.
8f'J	.	.
.	16ryy	.
8E'L	8ryy	.
8e'J	8ryy	.
=135	=135	=135
8D'L	16ryy	.
.	8ryy	.
8d'J	.	.
.	16ryy	.
8C'L	8ryy	.
8c'J	8ryy	.
=136	=136	=136
8BB-'L	16ryy	.
.	8ryy	.
8B-'J	.	.
.	16ryy	.
8AA'L	8ryy	.
8A'J	16ryy	.
.	16ryy	.
=137	=137	=137
8GG'L	2ryy	.
8G'J	.	.
8BB-'L	.	.
8B-'J	.	.
=	=	=
*-	*-	*-
!!!system-decoration: [({(s1,s2)})]
!!!CDT: 1862/08/22-1918/03/25
!!!CBL: St Germain-en-Laye, France
!!!CDL: Paris, France
!!!CNT: French
!!!AGN: Stage; Ballet
!!!MCN: Talmud, Blanche; Lewisohn, Irene
!!!MDT: 1916
!!!MGN: unknown
!!!MLC: New York, New York, United States of America
!!!MPD: 1916
!!!MPN:
!!!ODT: 1913
!!!PDT: 1913
!!!excerpt-start-measure: 122(176)
!!!excerpt-end-measure: 137(191)
!!!excerpt-start-time: 3:41
!!!excerpt-end-time: 4:04
!!!excerpt-duration-sec: 24
!!!excerpt-time-signature: 2/4
!!!excerpt-tempo-beat: {quarter}
!!!excerpt-tempo-rate: {80}
!!!excerpt-meter-type: duple
!!!excerpt-beat-group: G2
!!!excerpt-beat-subgroup: G2
!!!experiment: 0
!!!EEV: 2020/07/28
!!!ONB: Converted from MusicXML on 2020/07/28
